images/products-tubs-icon-6.svg

<svg width="20" height="21" viewBox="0 0 20 21" fill="none" xmlns="http://www.w3.org/2000/svg">
<path d="M11.667 3.41413V10.3391C11.667 11.1891 10.9753 11.8808 10.1253 11.8808H2.50033C2.04199 11.8808 1.66699 11.5058 1.66699 11.0475V5.72246C1.66699 4.02246 3.04199 2.64746 4.74199 2.64746H10.892C11.3253 2.64746 11.667 2.98913 11.667 3.41413Z" fill="black"/>
<path d="M17.917 13.8975C18.1503 13.8975 18.3337 14.0808 18.3337 14.3141V15.1475C18.3337 16.5308 17.217 17.6475 15.8337 17.6475C15.8337 16.2725 14.7087 15.1475 13.3337 15.1475C11.9587 15.1475 10.8337 16.2725 10.8337 17.6475H9.16699C9.16699 16.2725 8.04199 15.1475 6.66699 15.1475C5.29199 15.1475 4.16699 16.2725 4.16699 17.6475C2.78366 17.6475 1.66699 16.5308 1.66699 15.1475V13.4808C1.66699 13.0225 2.04199 12.6475 2.50033 12.6475H10.417C11.567 12.6475 12.5003 11.7141 12.5003 10.5641V5.98079C12.5003 5.52246 12.8753 5.14746 13.3337 5.14746H14.0337C14.6337 5.14746 15.1837 5.47246 15.4837 5.98913L16.017 6.92246C16.092 7.05579 15.992 7.23079 15.8337 7.23079C14.6837 7.23079 13.7503 8.16413 13.7503 9.31413V11.8141C13.7503 12.9641 14.6837 13.8975 15.8337 13.8975H17.917Z" fill="black"/>
<path d="M6.66667 19.3138C7.58713 19.3138 8.33333 18.5676 8.33333 17.6471C8.33333 16.7267 7.58713 15.9805 6.66667 15.9805C5.74619 15.9805 5 16.7267 5 17.6471C5 18.5676 5.74619 19.3138 6.66667 19.3138Z" fill="black"/>
<path d="M13.3337 19.3138C14.2541 19.3138 15.0003 18.5676 15.0003 17.6471C15.0003 16.7267 14.2541 15.9805 13.3337 15.9805C12.4132 15.9805 11.667 16.7267 11.667 17.6471C11.667 18.5676 12.4132 19.3138 13.3337 19.3138Z" fill="black"/>
<path d="M18.3333 11.4221V12.6471H15.8333C15.375 12.6471 15 12.2721 15 11.8138V9.3138C15 8.85547 15.375 8.48047 15.8333 8.48047H16.9083L18.1167 10.5971C18.2583 10.8471 18.3333 11.1305 18.3333 11.4221Z" fill="black"/>
</svg>

<svg width="20" height="21" fill="none" xmlns="http://www.w3.org/2000/svg"><path d="M11.667 3.414v6.925c0 .85-.692 1.542-1.542 1.542H2.5a.836.836 0 01-.833-.834V5.722c0-1.7 1.375-3.075 3.075-3.075h6.15c.433 0 .775.342.775.767z" fill="#000"/><path d="M17.917 13.898c.233 0 .417.183.417.416v.834c0 1.383-1.117 2.5-2.5 2.5 0-1.375-1.125-2.5-2.5-2.5a2.507 2.507 0 00-2.5 2.5H9.167c0-1.375-1.125-2.5-2.5-2.5a2.507 2.507 0 00-2.5 2.5 2.497 2.497 0 01-2.5-2.5V13.48c0-.458.375-.833.833-.833h7.917c1.15 0 2.083-.934 2.083-2.084V5.981c0-.459.375-.834.834-.834h.7c.6 0 1.15.325 1.45.842l.533.933a.21.21 0 01-.183.309c-1.15 0-2.084.933-2.084 2.083v2.5c0 1.15.934 2.084 2.084 2.084h2.083z" fill="#000"/><path d="M6.667 19.314a1.667 1.667 0 100-3.334 1.667 1.667 0 000 3.334zm6.667 0a1.667 1.667 0 100-3.334 1.667 1.667 0 000 3.334zm4.999-7.892v1.225h-2.5a.836.836 0 01-.833-.833v-2.5c0-.459.375-.834.833-.834h1.075l1.209 2.117c.141.25.216.534.216.825z" fill="#000"/></svg>
